!!!COM:	Obrecht, Jacob
!!!CDT:	1458-1505/07/
!!!OPR:	Missa Ave regina celorum
!!!ONM:	3
!!!OTL:	Credo
!!!AGN:	Mass; Credo
!!!SCT:	Obr1002c
!!!SCA:	Obr1002c
!!!voices:	4
**kern	**kern	**kern	**kern
*staff4	*staff3	*staff2	*staff1
*Ivox	*Ivox	*Ivox	*Ivox
*I"Bassus	*I"Tenor	*I"Altus	*I"Discantus
*I'B	*I'T	*I'A	*I'D
*>[A,B,C,D,E]	*>[A,B,C,D,E]	*>[A,B,C,D,E]	*>[A,B,C,D,E]
*>A	*>A	*>A	*>A
*clefF4	*clefGv2	*clefGv2	*clefG2
*k[b-]	*k[b-]	*k[b-]	*k[b-]
*M3/1	*M3/1	*M3/1	*M3/1
*met(O)	*met(O)	*met(O)	*met(O)
!!section: Patrem omnipotentem
!!!OMD: Patrem omnipotentem
=1-	=1-	=1-	=1-
0.r	0.r	0.f	0cc
.	.	.	[1cc
=2	=2	=2	=2
0.r	0.r	1.f	2cc\]
.	.	.	1a
.	.	1d	2f/
.	.	.	1f
.	.	2B-\	.
=3	=3	=3	=3
0.r	0.r	1B-	2g/
.	.	.	2b-\
.	.	2c\	2a/
.	.	2e-\	2g/
.	.	2.d\	1f
.	.	4c\	.
=4	=4	=4	=4
0.r	0.r	1B-	2r
.	.	.	2g/
.	.	2r	3a/V
.	.	.	3b-\
.	.	2c\	.
.	.	.	3cc\Z
.	.	2d\	3b-\V
.	.	.	3a/
.	.	2e\	.
.	.	.	3g/Z
=5	=5	=5	=5
0.r	0.r	0.f	0a
.	.	.	1r
=6	=6	=6	=6
0.r	0.r	0.r	1cc
.	.	.	1cc
.	.	.	1b-
=7	=7	=7	=7
0.r	0.r	1f	0a
.	.	1f	.
.	.	1e	2.g/
.	.	.	4a/
=8	=8	=8	=8
0.r	0.r	0d	2b-\
.	.	.	1a
.	.	.	4g/
.	.	.	4f/
.	.	1c	2e/
.	.	.	[2g/
=9	=9	=9	=9
0.r	0.r	2e-\	2g/]
.	.	2.d\	2.f/
.	.	4c\	4e/
.	.	2B-\	2d/
.	.	2A/	2.c/
.	.	[2c\	.
.	.	.	4d/
=10	=10	=10	=10
0.r	0.r	2c\]	4e/
.	.	.	4f/
.	.	2.B-\	2.g/
.	.	4A/	4a/
.	.	2G/	4b-\
.	.	.	4cc\
.	.	2.F/	2a/
.	.	.	[2cc\
.	.	4G/	.
=11	=11	=11	=11
0.r	0.r	4A/	4cc\]
.	.	4B-\	4b-\
.	.	1c	2a/
.	.	.	2g/
.	.	2A/	1f
.	.	1G	.
.	.	.	2e/
=12	=12	=12	=12
0.F	0c	1F	0.f
.	.	1r	.
.	[1c	1r	.
=13	=13	=13	=13
1.F	2c\]	0.r	0.r
.	1A	.	.
1D	2F/	.	.
.	1F	.	.
2BB-/	.	.	.
=14	=14	=14	=14
1BB-	2G/	0.r	0.r
.	2B-\	.	.
2C/	2A/	.	.
2E-\	2G/	.	.
2.D\	1F	.	.
4C/	.	.	.
=15	=15	=15	=15
1BB-	2r	0.r	0.r
.	2G/	.	.
2r	3A/V	.	.
.	3B-\	.	.
2C/	.	.	.
.	3c\Z	.	.
2D\	3B-\V	.	.
.	3A/	.	.
2E\	.	.	.
.	3G/Z	.	.
=16	=16	=16	=16
0.F	0A	0.r	0.r
.	1r	.	.
=17	=17	=17	=17
0.r	1c	0.r	0.r
.	1c	.	.
.	1B-	.	.
=18	=18	=18	=18
1F	0A	0.r	0.r
1F	.	.	.
1E	2.G/	.	.
.	4A/	.	.
=19	=19	=19	=19
0D	2B-\	0.r	0.r
.	2.A/	.	.
.	4G/	.	.
.	2F/	.	.
2.C/	2E/	.	.
.	[2G/	.	.
4D\	.	.	.
=20	=20	=20	=20
2E-\	2G/]	0.r	0.r
2.D\	2.F/	.	.
4C/	4E/	.	.
2BB-/	2D/	.	.
2AA/	2.C/	.	.
[2C/	.	.	.
.	4D/	.	.
=21	=21	=21	=21
2C/]	4E/	0.r	0.r
.	4F/	.	.
2.BB-/	2.G/	.	.
4AA/	4A/	.	.
2GG/	4B-\	.	.
.	4c\	.	.
2.FF/	2A/	.	.
.	[2c\	.	.
4GG/	.	.	.
=22	=22	=22	=22
4AA/	4c\]	0.r	1r
4BB-/	4B-\	.	.
1C	2A/	.	.
.	2G/	.	1r
2AA/	1F	.	.
1GG	.	.	1g
.	2E/	.	.
=23	=23	=23	=23
1FF	1F	2.c\	2a/
.	.	.	2.cc\
.	.	4d\	.
1r	1r	2e\	.
.	.	.	4b-\
.	.	1f	2a/
1r	1r	.	1g
.	.	2e\	.
=24	=24	=24	=24
0.r	0.r	2f\	1f
.	.	1d	.
.	.	.	1b-
.	.	1g	.
.	.	.	1a
.	.	2f\	.
=25	=25	=25	=25
0.r	0.r	2e\	2g/
.	.	2c\	1cc
.	.	2.d\	.
.	.	.	2b-\
.	.	8c\L	.
.	.	8B-\J	.
.	.	4A/	1cc
.	.	4B-\	.
.	.	4c\	.
.	.	4d\	.
=26	=26	=26	=26
0.r	0.r	2e\	2g/
.	.	2f\	2a/
.	.	2g\	2g/
.	.	2e\	1cc
.	.	1d	.
.	.	.	2bni\
=27	=27	=27	=27
2.C/	1.c	1c	1cc
4D\	.	.	.
2E\	.	1r	1r
1F	2A/	.	.
.	1G	1r	1r
2E\	.	.	.
=28	=28	=28	=28
2F\	1F	0.r	0.r
1D	.	.	.
.	1B-	.	.
1G	.	.	.
.	1A	.	.
2F\	.	.	.
=29	=29	=29	=29
2E\	2G/	0.r	0.r
2C/	1c	.	.
2.D\	.	.	.
.	2B-\	.	.
8C/L	.	.	.
8BB-/J	.	.	.
4AA/	1c	.	.
4BB-/	.	.	.
4C/	.	.	.
4D\	.	.	.
=30	=30	=30	=30
2E\	2G/	0.r	0.r
2F\	2A/	.	.
2G\	2G/	.	.
2E\	1c	.	.
1D	.	.	.
.	2Bni\	.	.
=31	=31	=31	=31
*	*M3/0	*	*
*	*met(C.)	*	*
*	*rscale:1/2	*	*
1C	0.c	1G	1e
2C/	.	2G/	2e/
1C	.	1G	1e
2C/	.	2G/	2e/
=32	=32-	=32	=32
1.BB-	0.F	1.d	1f
.	.	.	2f/
2AA/	.	2c\	1f
1BB-	.	2d\	.
.	.	2B-\	[2f/
=33	=33	=33	=33
1FF	1A	1c	2f/]
.	.	.	2f/
1C	0G	1c	2e/
.	.	.	2.g/
2r	.	2B-\	.
.	.	.	4d/
2C/	.	2c\	2e/
=34	=34-	=34	=34
2D\	0F	2A/	2f/
2.F\	.	4D/	2.a/
.	.	4E/	.
.	.	4F/	.
4E\	.	4G/	4g/
4D\	.	2A/	4f/
4C/	.	.	4e/
2BB-/	1r	2B-\	2d/
2D\	.	2F/	[2f/
=35	=35	=35	=35
1C	1c	1G	2f/]
.	.	.	2e/
1FF	1A	1F	1.f
1BB-	1B-	1D	.
.	.	.	2g/
=36	=36-	=36	=36
2.FF/	[0.c	2C/	1.a
.	.	1F	.
4GG/	.	.	.
4AA/	.	.	.
4BB-/	.	.	.
2.C/	.	2E/	2g/
.	.	2A/	2.cc\
4D\	.	.	.
2E\	.	2G/	.
.	.	.	4b-\
=37	=37	=37	=37
2F\	0c]	2r	2a/
2E\	.	2.c\	2g/
2F\	.	.	2a/
.	.	4B-\	.
2.A\	.	4A/	2.cc\
.	.	4G/	.
.	1r	1F	.
4G\	.	.	4b-\
[2F\	.	.	2a/
=38	=38-	=38	=38
2F\]	1G	1C	1g
2E\	.	.	.
1F	1A	1c	2r
.	.	.	2f/
1D	1B-	1d	2f/
.	.	.	2d/
=39	=39	=39	=39
2C/	0c	2G/	2.e/
2AA/	.	1A	.
.	.	.	4e/
2r	.	.	2e/
2AA/	.	2A/	2e/
2C/	1r	2G/	2e/
2D\	.	2F/	2f/
=40	=40-	=40	=40
1BB-	1G	1D	4g/
.	.	.	4f/
.	.	.	4e/
.	.	.	4d/
1AA	1A	2E/	2c/
.	.	2C/	2e/
1r	1B-	1G	1d
=41	=41	=41	=41
1.AA	1.c	1.E	1c
.	.	.	2r
2BB-/	2B-\	2D/	1f
1C	1G	2E/	.
.	.	2C/	2e/
=42	=42-	=42	=42
1FF	1F	1c	4f/
.	.	.	4g/
.	.	.	4a/
.	.	.	4b-\
2r	[0A	2F/	2.cc\
2.F\	.	2.c\	.
.	.	.	4b-\
.	.	.	2a/
4E\	.	4d\	.
2C/	.	2e-i\	[2g/
=43	=43	=43	=43
1D	1A]	1d	2g/]
.	.	.	2f#i/
1GG	[0Gj	2B-\	0g
.	.	2.d\	.
2r	.	.	.
.	.	4c\	.
[2G\	.	4B-\	.
.	.	4A/	.
=44	=44-	=44	=44
4G\]	1G]	2B-\	2r
4F\	.	.	.
4E\	.	1c	2g/
4D\	.	.	.
2C/	1r	.	2e/
2AA/	.	2C/	2f/
1GG	1B-	2D/	1g
.	.	2E/	.
=45	=45	=45	=45
2FF/	1A	1F	1c
1F	.	.	.
.	0c	1C	2r
2E\	.	.	2g/
2F\	.	2r	[1a
[2FF/	.	2c\	.
=46	=46-	=46	=46
4FF/]	1A	1.c	2a/]
4GG/	.	.	.
4AA/	.	.	4g/
4BB-/	.	.	4f/
2C/	0G	.	2e/
2BB-/	.	2d\	1f
1C	.	1c	.
.	.	.	2e/
=47	=47	=47	=47
2r	1r	2A/	2f/
2.FF/	.	2.c\	2.a/
.	1F	.	.
4GG/	.	4B-\	4b-\
4AA/	.	2A/	2.cc\
4BB-/	.	.	.
2C/	1E	2G/	.
.	.	.	4b-\
2E-\	.	2c\	4g/
.	.	.	4a/
=48	=48-	=48	=48
1D	1F	2d\	4b-\
.	.	.	2a/
.	.	2A/	.
.	.	.	8g/L
.	.	.	8f/J
0C	0G	1c	2e/
.	.	.	1f
.	.	1c	.
.	.	.	2e/
=49	=49	=49	=49
*	*M3/1	*	*
*	*met(O)	*	*
*	*rscale:1	*	*
1FF	[0.F	2A/	2.f/
.	.	2.d\	.
.	.	.	4g/
2r	.	.	4a/
.	.	4c\	4b-\
2.F\	.	2A/	2cc\
.	.	1f	2a/
4E\	.	.	.
4D\	.	.	[2dd\
4C/	.	.	.
=50	=50	=50	=50
2BB-/	0.F]	2d\	2dd\]
2AA/	.	2.f\	2.cc\
2BB-/	.	.	.
.	.	4e\	4b-\
2BB-/	.	2d\	1b-
1FF	.	1c	.
.	.	.	2a/
=51	=51	=51	=51
0.r	0.r	2.B-\	2b-\
.	.	.	2.dd\
.	.	8A/L	.
.	.	8G/J	.
.	.	2F/	.
.	.	.	4cc\
.	.	2.f\	2a/
.	.	.	2g/
.	.	4e\	.
.	.	2d\	2b-\
=52	=52	=52	=52
0.r	0.r	2c\	2a/
.	.	2d\	2.b-\
.	.	2A/	.
.	.	.	4a/
.	.	2c\	1a
.	.	1B-	.
.	.	.	2g/
=53	=53	=53	=53
2r	0.r	1A	0a
1F	.	.	.
.	.	1.c	.
2F\	.	.	.
2E-\	.	.	1r
2D\	.	2B-\	.
=54	=54	=54	=54
2C/	0.r	2A/	0.r
2.E-i\	.	2G/	.
.	.	2.B-\	.
4D\	.	.	.
1BB-	.	.	.
.	.	4A/	.
.	.	1F	.
[2D\	.	.	.
=55	=55	=55	=55
2D\]	0.r	1.A	0.r
2D\	.	.	.
2C/	.	.	.
2BB-/	.	2G/	.
2AA/	.	2F/	.
[2C/	.	2E/	.
=56	=56	=56	=56
4C/]	0.r	2.G/	0.r
4BB-/	.	.	.
2.GG/	.	.	.
.	.	4F/	.
.	.	2.D/	.
4AA/	.	.	.
2BB-/	.	.	.
.	.	4E/	.
4FF/	.	2F/	.
4GG/	.	.	.
4AA/	.	4C/	.
4BB-/	.	4D/	.
=57	=57	=57	=57
2C/	1r	4E/	0.r
.	.	4F/	.
2GG/	.	2G/	.
2BB-/	1r	2D/	.
2AA/	.	1F	.
1GG	2r	.	.
.	2G/	2E/	.
=58	=58	=58	=58
*	*	*	*M3/0
*	*	*	*met(C.)
*	*	*	*rscale:1/2
1FF	2A/	2.F/	[0.ccj
.	2c\	.	.
.	.	4G/	.
1r	2F/	2A/	.
.	1f	2F/	.
1C	.	2r	.
.	2e\	2G/	.
=59	=59	=59	=59-
1FF	1f	2A/	0.cc]
.	.	2c\	.
2.AA/	1r	2F/	.
.	.	1f	.
4BB-/	.	.	.
1C	2r	.	.
.	2G/	2e\	.
=60	=60	=60	=60
1FF	2A/	2f\	0.cc
.	2c\	2F/	.
2r	2F/	1A	.
2FF/	1f	.	.
1C	.	1G	.
.	2e\	.	.
=61	=61	=61	=61-
2D\	2.f\	2.F/	0a
2.F\	.	.	.
.	4e\	4G/	.
.	2c\	2A/	.
4E\	.	.	.
4D\	2.d\	2F/	.
4C/	.	.	.
1BB-	.	2r	1b-
.	4c\	.	.
.	4B-\	[2f\	.
.	4A/	.	.
=62	=62	=62	=62
1BB-	2.B-\	4f\]	0dd
.	.	4e\	.
.	.	4d\	.
.	8A/L	4c\	.
.	8G/J	.	.
1BB-	2F/	2B-\	.
.	2D/	2G/	.
1AA	1E	2A/	1cc
.	.	[2c\	.
=63	=63	=63	=63-
2r	1F	4c\]	0a
.	.	4B-\	.
2.FF/	.	4A/	.
.	.	4G/	.
.	2.C/	2F/	.
4GG/	.	.	.
4AA/	.	1c	.
4BB-/	4D/	.	.
4C/	4E/	.	1g
4D\	4F/	.	.
4E\	2G/	2c\	.
4F\	.	.	.
=64	=64	=64	=64
1G	2r	2B-\	1b-
.	2G/	2.d\	.
2F\	2D/	.	1.a
.	.	4c\	.
2C/	2E/	1c	.
1D	2.F/	.	.
.	.	2Bni\	4g/L
.	4G/	.	4f/J
=65	=65	=65	=65-
0C	2A/	1c	[0.e
.	2G/	.	.
.	2E/	2G/	.
.	2.A/	2.c\	.
2r	.	.	.
.	4G/	4B-\	.
[2C/	2E/	2G/	.
=66	=66	=66	=66
2C/]	2G/	2.c\	0.e]
1AA	2A/	.	.
.	.	4B-\	.
.	2.E/	2A/	.
2.C/	.	2G/	.
.	4F/	.	.
.	2G/	2.c\	.
4BB-/	.	.	.
4AA/	[2A/	.	.
4GG/	.	4B-\	.
=67	=67	=67	=67-
2FF/	4A/]	4A/	0.r
.	4B-\	4G/	.
2.F\	2c\	2A/	.
.	2A/	2F/	.
4E\	.	.	.
2D\	2F/	1f	.
1C	1G	.	.
.	.	2e\	.
=68	=68	=68	=68
[0.FF	2F/	2.f\	0.a
.	2c\	.	.
.	.	4e\	.
.	2A/	2c\	.
.	2.c\	2A/	.
.	.	2.c\	.
.	4B-\	.	.
.	4A/	.	.
.	4G/	4B-\	.
=69	=69	=69	=69-
0.FF]	2F/	4A/	0.a
.	.	4G/	.
.	2.A/	2F/	.
.	.	2.A/	.
.	4B-\	.	.
.	2c\	.	.
.	.	4B-\	.
.	2A/	2c\	.
.	[2c\	2A/	.
=70	=70	=70	=70
0C	4c\]	2.c\	0.g
.	4B-\	.	.
.	2G/	.	.
.	.	4d\	.
.	2r	2e\	.
.	2.c\	1f	.
1C	.	.	.
.	4B-\	.	.
.	2G/	2e\	.
=71	=71	=71	=71-
1FF	1A	2.f\	0f
.	.	4e\	.
2r	2F/	2d\	.
2.FF/	2.A/	2c\	.
.	.	1f	1a
4GG/	4B-\	.	.
4AA/	[2c\	.	.
4BB-/	.	.	.
=72	=72	=72	=72
1C	4c\]	1e-	1g
.	4B-\	.	.
.	1G	.	.
2.C/	.	1c	1.cc
.	1e-	.	.
4D\	.	.	.
4E-i\	.	2r	.
4F\	.	.	.
2G\	[2d\	2d\	2b-\
=73	=73	=73	=73-
1D	4d\]	1f	1a
.	4c\	.	.
.	2d\	.	.
1E-	2B-\	1e-	1.g
.	1c	.	.
1F	.	1c	.
.	2A/	.	2f/
=74	=74	=74	=74
1BB-	1B-	1d	0f
0C	0G	0c	.
.	.	.	1e
=75	=75	=75	=75
*	*	*	*M3/1
*	*	*	*met(O)
*	*	*	*rscale:1
2FF/	1F	2c\	0f
2.F\	.	1A	.
.	2r	.	.
4E\	.	.	.
2D\	1f	2F/	.
1C	.	1G	1r
.	2e\	.	.
=76	=76	=76	=76
2FF/	1f	4F/	1a
.	.	4G/	.
2F\	.	4A/	.
.	.	4B-\	.
2E\	2r	4c\	2g/
.	.	4F/	.
2F\	1c	1f	2a/
1G	.	.	1b-
.	2B-\	2e\	.
=77	=77	=77	=77
0.Fl	0.cl	0.fl	0.al
!!LO:LB:i:g=z
=78||	=78||	=78||	=78||
*>B	*>B	*>B	*>B
*clefF4	*clefGv2	*clefGv2	*clefG2
*k[b-]	*k[b-]	*k[b-]	*k[b-]
*M2/1	*M2/1	*M2/1	*M2/1
*met(C|)	*met(C)	*met(C|)	*met(C|)
!!section: Et incarnatus est
!!!OMD: Et incarnatus est
*	*rscale:1/2	*	*
0C	[0cj	0g	1.e
.	.	.	4f/
.	.	.	4g/
=79	=79-	=79	=79
1F	0c]	1f	1a
1C	.	1g	1e
=80	=80	=80	=80
1D	0A	1f	2f/
.	.	.	1d
1AA	.	1e	.
.	.	.	2c/
=81	=81-	=81	=81
1BB-	0F	[0d	2d/
.	.	.	2.f/
2.BB-/	.	.	.
.	.	.	4e/
.	.	.	4d/
4AA/	.	.	4c/
=82	=82	=82	=82
1GG	0G	0d]	2B-/
.	.	.	2.b-\
1G	.	.	.
.	.	.	4a/
.	.	.	4g/
.	.	.	4f/
=83	=83-	=83	=83
1G	1B-	1r	1g
1F	1A	1d	[1a
=84	=84	=84	=84
0D	0F	0f	2a/]
.	.	.	2a/
.	.	.	1a
=85	=85-	=85	=85
0r	1r	1e	1g
.	1G	1d	1b-
=86	=86	=86	=86
0D	1A	1.f	1.a
.	1B-	.	.
.	.	4e\	4g/
.	.	4f\	4f/
=87	=87-	=87	=87
1C	[0c	1g	1e
1C	.	1g	2r
.	.	.	2e/
=88	=88	=88	=88
1F	0c]	1f	1a
1C	.	1e	1g
=89	=89-	=89	=89
2D\	0r	1d	2f/
2BB-/	.	.	1b-
1F	.	1c	.
.	.	.	2a/
=90	=90	=90	=90
0BB-	0f	0B-	0b-
=91	=91-	=91	=91
1BB-	0f	1d	1b-
1BB-	.	1d	1b-
=92	=92	=92	=92
0C	0e	0c	2a/
.	.	.	1g
.	.	.	4f/
.	.	.	4e/
=93	=93-	=93	=93
1D	0d	0r	1f
1BB-	.	.	1b-
=94	=94	=94	=94
1F	1.c	0r	2.a/
.	.	.	4g/
2C/	.	.	2e/
[2D\	2B-\	.	[2f/
=95	=95-	=95	=95
4D\]	1A	0r	4f/]
4E\	.	.	4e/
2F\	.	.	1d
1E	1G	.	.
.	.	.	2c#i/
=96	=96	=96	=96
1D	1F	0r	1d
1C	1E	.	2e/
.	.	.	[2c/
=97	=97-	=97	=97
0F	0A	0r	2c/]
.	.	.	2d/
.	.	.	2c/
.	.	.	[2f/
=98	=98	=98	=98
1C	0G	0r	2f/]
.	.	.	4e/
.	.	.	4d/
1C	.	.	1e
=99	=99-	=99	=99
2D\	[0F	0d	1f
2BB-/	.	.	.
1BB-	.	.	1r
=100	=100	=100	=100
!	!LO:N:vis=0	!	!
2r	0F_y	1c	1.f
2FF/	.	.	.
1BB-	.	1d	.
.	.	.	2g/
=101	=101-	=101	=101
1AA	0F]yy	1c	1a
1BB-	.	1B-	1d
=102	=102	=102	=102
0FF	1r	0A	0f
.	[1cj	.	.
=103	=103-	=103	=103
1C	1c]	1G	1e-i
1D	1B-	1F	1d
=104	=104	=104	=104
0E-	0G	2.G/	1.B-
.	.	4A/	.
.	.	2B-\	.
.	.	2G/	2c/
=105	=105-	=105	=105
2.D\	0F	1A	2.d/
4C/	.	.	4e/
2BB-/	.	2d\	[1f
2AA/	.	2c\	.
=106	=106	=106	=106
0BB-	0B-	2.d\	2f/]
.	.	.	4e/
.	.	4e\	4d/
.	.	2.f\	1d
.	.	4e\	.
=107	=107-	=107	=107
1F	0A	2d\	2r
.	.	2c\	2.f/
1D	.	1d	.
.	.	.	4g/
.	.	.	2a/
=108	=108	=108	=108
1BB-	1G	1d	2.b-\
.	.	.	4a/
1C	[1cj	2G/	4g/
.	.	.	4f/
.	.	2G/	2e/
=109	=109-	=109	=109
1FF	1c]	2A/	2c/
.	.	2A/	1f
1r	1B-	1G	.
.	.	.	2e/
=110	=110	=110	=110
1F	0c	1F	2f/
.	.	.	2.a/
2.C/	.	1r	.
.	.	.	4g/
.	.	.	4e/
4D\	.	.	4f/
=111	=111-	=111	=111
4E\	1G	1B-	1g
4F\	.	.	.
1G	.	.	.
.	1A	1A	2.c/
2F\	.	.	.
.	.	.	4d/
=112	=112	=112	=112
4G\	1G	2B-\	4e/
4F\	.	.	4f/
4E\	.	1G	2.g/
4D\	.	.	.
2C/	[1cj	.	.
.	.	.	4e/
[2F\	.	[2A/	[2f/
=113	=113-	=113	=113
4F\]	1c]	4A/]	4f/]
4E\	.	4G/	4g/
2C/	.	1G	2e/
1D	1Bni	.	2f/
.	.	2F/	2d/
=114	=114	=114	=114
0C	0c	1G	2.e/
.	.	.	4f/
.	.	1r	2g/
.	.	.	[2a/
=115	=115-	=115	=115
1.D	0F	0r	4a/]
.	.	.	4g/
.	.	.	4f/
.	.	.	4e/
.	.	.	2f/
4C/	.	.	4e/
4BB-/	.	.	4d/
=116	=116	=116	=116
2AA/	1A	0r	2c/
2FF/	.	.	1f
1C	1G	.	.
.	.	.	2e/
=117	=117-	=117	=117
2D\	0F	1B-	2f/
2BB-/	.	.	2d/
1F	.	1A	1c
=118	=118	=118	=118
2r	1r	1B-	1d
2G\	.	.	.
2E\	1c	2G/	2e/
[2F\	.	[2A/	[2c/
=119	=119-	=119	=119
4F\]	1A	4A/]	4c/]
4E\	.	4G/	4d/
2C/	.	2E/	4e/
.	.	.	4f/
1D	1B-	1F	2d/
.	.	.	2f/
=120	=120	=120	=120
0Cl	0cl	0Gl	0el
!!LO:LB:i:g=z
*	*rscale:1	*	*
=121||	=121||	=121||	=121||
*>C	*>C	*>C	*>C
*clefF4	*clefGv2	*clefGv2	*clefG2
*k[b-]	*k[b-]	*k[b-]	*k[b-]
*M2/1	*M2/1	*M2/1	*M2/1
*met(C|)	*met(C|)	*met(C|)	*met(C|)
!!section: Et resurrexit
!!!OMD: Et resurrexit
1F	0c	1A	0r
2E\	.	2G/	.
2F\	.	[2c\	.
=122	=122	=122	=122
1D	1f	2c\]	0r
.	.	2Bni\	.
1C	2e\	2c\	.
.	2c\	2e\	.
=123	=123	=123	=123
1r	1B-	2d\	0r
.	.	4c\	.
.	.	4B-\	.
2r	1c	2A/	.
[2F\	.	2F/	.
=124	=124	=124	=124
2F\]	2r	1.c	0r
2E\	2G/	.	.
1F	2A/	.	.
.	[2c\	[2A/	.
=125	=125	=125	=125
0r	2c\]	2A/]	0r
.	2B-\	2G/	.
.	2A/	1c	.
.	2F/	.	.
=126	=126	=126	=126
2r	2G/	2B-\	0r
1F	2A/	2A/	.
.	1B-	1G	.
2E\	.	.	.
=127	=127	=127	=127
2F\	1A	2F/	0r
2D\	.	1f	.
1C	1r	.	.
.	.	2e\	.
=128	=128	=128	=128
0r	0d	2f\	0r
.	.	1B-	.
.	.	4A/	.
.	.	4G/	.
=129	=129	=129	=129
2r	2c\	2A/	0r
1F	2A/	2F/	.
.	1B-	1G	.
2E\	.	.	.
=130	=130	=130	=130
2F\	1A	2F/	0r
2D\	.	1f	.
1C	2r	.	.
.	2G/	2e\	.
=131	=131	=131	=131
2r	1F	1f	0r
2F\	.	.	.
2E\	2B-\	2r	.
2F\	2A/	2c\	.
=132	=132	=132	=132
1D	1F	2d\	0r
.	.	2.f\	.
1r	2A/	.	.
.	.	4e\	.
.	[2c\	[2a\	.
=133	=133	=133	=133
0r	2c\]	2a\]	0r
.	2B-\	2.g\	.
.	1A	.	.
.	.	4f\	.
.	.	[2f\	.
=134	=134	=134	=134
0r	1G	2f\]	0r
.	.	2e\	.
.	[1F	2.f\	.
.	.	4e\	.
=135	=135	=135	=135
2r	1F]	2d\	0r
2F\	.	2.c\	.
2E\	2r	.	.
.	.	4B-\	.
2F\	[2c\	4A/	.
.	.	4G/	.
=136	=136	=136	=136
1D	2c\]	2.F/	0r
.	2B-\	.	.
.	.	4G/	.
1C	1c	4A/	.
.	.	4G/	.
.	.	[2c\	.
=137	=137	=137	=137
1r	1d	2c\]	0r
.	.	2B-\	.
2r	[1c	2c\	.
2F\	.	2A/	.
=138	=138	=138	=138
2E\	1c]	2G/	0r
2F\	.	1c	.
1D	1f	.	.
.	.	2Bni\	.
=139	=139	=139	=139
1C	1.e	2.c\	0r
.	.	4B-\	.
1r	.	2G/	.
.	[2c\	[2A/	.
=140	=140	=140	=140
1r	2c\]	2A/]	0r
.	2f\	2F/	.
2r	2e\	2G/	.
2F\	[2d\	2A/	.
=141	=141	=141	=141
2E\	4d\]	2r	0r
.	4c\	.	.
2F\	1c	1F	.
1D	.	.	.
.	2Bni\	[2f\	.
=142	=142	=142	=142
1C	1c	2f\]	0r
.	.	2e\	.
2r	1F	2.f\	.
[2F\	.	.	.
.	.	4e\	.
=143	=143	=143	=143
2F\]	2A/	1c	0r
2E\	2G/	.	.
2F\	1F	2r	.
2D\	.	[2f\	.
=144	=144	=144	=144
1C	2r	2f\]	0r
.	2c\	2e\	.
1r	2A/	2f\	.
.	2B-\	2d\	.
=145	=145	=145	=145
1r	0c	2.e\	0r
.	.	4f\	.
2r	.	2g\	.
[2F\	.	[2a\	.
=146	=146	=146	=146
2F\]	2r	2a\]	0r
2E\	2G/	2g\	.
2F\	2A/	1f	.
2D\	2B-\	.	.
=147	=147	=147	=147
2C/	1c	2e\	0r
1F	.	1a	.
.	2r	.	.
2E\	2G/	2g\	.
=148	=148	=148	=148
2F\	2A/	1f	0r
2D\	2B-\	.	.
1C	2.c\	2e\	.
.	.	[2g\	.
.	4B-\	.	.
=149	=149	=149	=149
1r	2G/	4g\]	0r
.	.	4f\	.
.	2F/	2.d\	.
2r	1A	.	.
.	.	4c\	.
[2F\	.	2A/	.
=150	=150	=150	=150
2F\]	1G	1B-	0r
2E\	.	.	.
2F\	2r	2A/	.
2D\	2B-\	2F/	.
=151	=151	=151	=151
1C	2A/	2.c\	0r
.	1c	.	.
.	.	4d\	.
2r	.	2e\	.
[2F\	2A/	2f\	.
=152	=152	=152	=152
2F\]	1G	1g	0r
2E\	.	.	.
2F\	2r	2a\	.
2D\	2F/	4g\	.
.	.	4f\	.
=153	=153	=153	=153
2C/	2E/	2g\	0r
2AA/	2F/	1f	.
2BB-/	1G	.	.
2C/	.	2e\	.
=154	=154	=154	=154
1FF	[0Fl	2.f\	0r
.	.	4e\	.
2r	.	4d\	.
.	.	4c\	.
[2BB-/	.	[2d\	.
=155	=155	=155	=155
2BB-/]	0F_	2d\]	0r
2AA/	.	2c\	.
1BB-	.	1d	.
=156	=156	=156	=156
0FFl	0F]	1c	0r
.	.	1Al	.
!!LO:LB:i:g=z
=157||	=157||	=157||	=157||
*>D	*>D	*>D	*>D
*clefF4	*clefGv2	*clefGv2	*clefG2
*k[b-]	*k[b-]	*k[b-]	*k[b-]
*M2/1	*M2/1	*M2/1	*M2/1
*met(C|)	*met(O)	*met(C|)	*met(C|)
!!section: Et iterum
!!!OMD: Et iterum
*	*rscale:1/2	*	*
1F	[0cj	1f	1a
2F\	.	2f\	2a/
2F\	.	2f\	2a/
=158	=158-	=158	=158
1C	0c]	1e	1g
1C	.	1e	1g
=159	=159-	=159	=159
1D	0A	1d	2f/
.	.	.	2f/
1AA	.	1c	1e
=160	=160	=160	=160
2BB-/	0F	2d\	2r
2AA/	.	2.f\	2.a/
1FF	.	.	.
.	.	4e\	4g/
.	.	4d\	4f/
.	.	4c\	4e/
=161	=161-	=161	=161
1r	0G	1B-	1d
1C	.	1c	2e/
.	.	.	[2g/
=162	=162-	=162	=162
1BB-	1B-	1r	4g/]
.	.	.	4f/
.	.	.	1f
1C	2A/	1c	.
.	2G/	.	2e/
=163	=163	=163	=163
1.D	0F	2A/	2f/
.	.	2.f\	1a
.	.	4e\	.
2BB-/	.	2d\	2b-\
=164	=164-	=164	=164
1AA	1r	1c	2cc\
.	.	.	2c/
1GG	1G	2B-\	2d/
.	.	4A/	2e/
.	.	4G/	.
=165	=165-	=165	=165
1D	1A	2F/	1.f
.	.	1A	.
1BB-	1B-	.	.
.	.	2G/	4e/
.	.	.	4d/
=166	=166	=166	=166
0AA	[0cj	1A	2f/
.	.	.	2e/
.	.	2E/	2c/
.	.	[2A/	2cc\
=167	=167-	=167	=167
1r	0c]	2A/]	2a/
.	.	4G/	2.cc\
.	.	4F/	.
1AA	.	2E/	.
.	.	.	4b-\
.	.	2c\	2a/
=168	=168-	=168	=168
1BB-	0r	2B-\	2g/
.	.	2A/	1f
1C	.	1G	.
.	.	.	2e/
=169	=169	=169	=169
0D	0f	1.F	1f
.	.	.	1r
.	.	2G/	.
=170	=170-	=170	=170
1D	0f	1A	0d
1BB-	.	1B-	.
=171	=171-	=171	=171
1C	0e	1G	1c
1AA	.	1A	1c
=172	=172	=172	=172
1BB-	0d	1F	1B-
1GG	.	1G	1B-
=173	=173-	=173	=173
2AA/	1.c	2r	1A
2.A\	.	2F/	.
.	.	2G/	1r
4G\	.	.	.
[2G\	2B-\	2E/	.
=174	=174-	=174	=174
4G\]	1A	2F/	0r
4F\	.	.	.
2.F\	.	2D/	.
.	1G	2E/	.
4E\	.	.	.
[2E\	.	2C/	.
=175	=175	=175	=175
4E\]	1F	2D/	1r
4D\	.	.	.
2.D\	.	2BB-/	.
.	1E	2C/	2r
4C/	.	.	.
2C/	.	2AA/	[2cc\
=176	=176-	=176	=176
1AA	0A	0C	4cc\]
.	.	.	4b-\
.	.	.	1a
1FF	.	.	.
.	.	.	4g/
.	.	.	4f/
=177	=177-	=177	=177
0C	0G	1r	2e/
.	.	.	1f
.	.	1c	.
.	.	.	2e/
=178	=178	=178	=178
1FF	[0Fj	1.c	1.f
2r	.	.	.
2BB-/	.	2B-\	4e/
.	.	.	4d/
=179	=179-	=179	=179
2AA/	0F_y	2c\	1c
2FF/	.	2A/	.
1BB-	.	1B-	1d
=180	=180-	=180	=180
1FF	0F]	1.A	2c/
.	.	.	2.cc\
2r	.	.	.
.	.	.	4b-\
2F\	.	4G/	[2a/
.	.	4F/	.
=181	=181	=181	=181
2E\	1r	1G	4a/]
.	.	.	4g/
2C/	.	.	1g
1F	[1cj	1A	.
.	.	.	2f/
=182	=182-	=182	=182
1C	1c]	0G	1g
1r	1B-	.	1r
=183	=183-	=183	=183
3%4CV	0G	3%4cV	3%4gV
[3%2BB-Z	.	[3%2dZ	[3%2b-Z
=184	=184	=184	=184
3%2BB-]V	0F	3%2d]V	3%2b-]V
3%4DZ	.	3%4dZ	3%4aZ
=185	=185-	=185	=185
3%4GGV	0B-	[0d	3%4gV
[3%2DZ	.	.	[3%2fZ
=186	=186-	=186	=186
3%2D]V	0A	3%2d]V	3%2f]V
3%4FZ	.	3%4cZ	3%4fZ
=187	=187	=187	=187
3%4CV	1G	3%4cV	3%2.eV
.	[1cj	.	3f/
[3%2EZ	.	[3%2GZ	3%2gZ
=188	=188-	=188	=188
3%2E]V	1c]	3%2G]V	3%2eV
3%4DZ	.	3%4FZ	3%2f
.	1Bni	.	.
.	.	.	3%2dZ
=189	=189-	=189	=189
1.C	0c	1G	1.e
.	.	2r	.
2AA/	.	2c\	4d/
.	.	.	4c/
=190	=190	=190	=190
2BB-/	1G	2B-\	2d/
1C	.	2G/	1e
.	1A	1c	.
2AA/	.	.	2c/
=191	=191-	=191	=191
2BB-/	1G	2B-\	2d/
2.C/	.	2G/	2.e/
.	[1cj	1A	.
4BB-/	.	.	4d/
4AA/	.	.	2e/
4GG/	.	.	.
=192	=192-	=192	=192
2FF/	1c]	0r	2f/
2AA/	.	.	2c/
1GG	1Bni	.	1d
=193	=193	=193	=193
*M3/3%2	*	*	*
*met(3)	*	*	*
*rscale:3/2	*	*	*
3%2r	0c	3%4eV	3%2cV
3%2r	.	.	3%2r
3%2C	.	3%2eZ	3%2ccZ
=194	=194-	=194	=194
3%2.D	0F	3%2.fV	3%4aV
3C/	.	3e\	.
3%2BB-	.	3%2dZ	3%2b-Z
=195	=195-	=195	=195
3%2AA	1A	3%2cV	3%2.ccV
3%2C	.	3%2.e	.
.	1G	.	3b-\
3%2E	.	.	3%2gZ
.	.	3d\Z	.
=196	=196	=196	=196
3%4D	0F	3%2.fV	3%4aV
.	.	3e\	.
3%2BB-	.	3%2dZ	3%2b-Z
=197	=197-	=197	=197
3%2F	1r	3%2cV	3%2.ccV
3%2C	.	3%2.e	.
.	1c	.	3b-\
3%2E	.	.	3%2gZ
.	.	3d\Z	.
=198	=198-	=198	=198
3%2F	1A	3%2cV	3%2.aV
3%4D	.	3%4dZ	.
.	1B-	.	3g/
.	.	.	3%2fZ
=199	=199	=199	=199
3%2.C	[0cj	3%2.GV	3%2eV
.	.	.	3%2.cc
3AA/	.	3A/	.
[3%2AA	.	[3%2EZ	.
.	.	.	3b-\Z
=200	=200-	=200	=200
3AA/]	0c]	3E/]V	3%4aV
3FF/	.	3F/	.
3%2FF	.	3%2F	.
3%2C	.	3%2EZ	3%2gZ
=201	=201-	=201	=201
3%2AA	1r	3%4FV	3%2aV
3%4GG	.	.	3%4b-Z
.	1G	.	.
.	.	3%2EZ	.
*rscale:1	*	*	*
=202	=202	=202	=202
*M2/1	*	*	*
*met(C|)	*	*	*
!!primary-mensuration: men(C|)
1FF	1A	1F	1a
1r	1B-	1r	1g
=203	=203-	=203	=203
1.F	0c	2.F/	1.a
.	.	4G/	.
.	.	4A/	.
.	.	4B-\	.
2E\	.	[2c\	[2g/
=204	=204-	=204	=204
1D	1r	2c\]	4g/]
.	.	.	4c/
.	.	2B-\	1f
1C	1G	1c	.
.	.	.	2e/
=205	=205	=205	=205
1F	1A	1c	1f
1BB-	1B-	1d	2r
.	.	.	2f/
=206	=206-	=206	=206
1.F	1.c	1.A	1f
.	.	.	1f
2BB-/	2B-\	2F/	.
=207	=207-	=207	=207
2C/	1G	1c	1e
2E\	.	.	.
2D\	1F	1d	2f/
4C/	.	.	[2a/
4BB-/	.	.	.
=208	=208	=208	=208
1AA	0A	1.c	4a/]
.	.	.	4b-\
.	.	.	2cc\
1FF	.	.	2a/
.	.	2c\	4g/
.	.	.	4f/
=209	=209-	=209	=209
1.C	0G	2.c\	1e
.	.	4d\	.
.	.	2e\	2r
2BB-/	.	[2d\	[2g/
=210	=210-	=210	=210
1AA	1r	2d\]	2g/]
.	.	2c\	2f/
1GG	1B-	[1d	1g
=211	=211	=211	=211
1D	1A	1d]	1f
2E\	[1cj	2r	2g/
[2F\	.	2c\	[2a/
=212	=212-	=212	=212
4F\]	1c]	2f\	4a/]
4E\	.	.	4g/
2C/	.	2e\	1g
1D	1A	1d	.
.	.	.	2f#i/
=213	=213-	=213	=213
2GG/	0G	1.B-	2.g/
2.G\	.	.	.
.	.	.	4f/
.	.	.	2d/
4F\	.	.	.
4E\	.	2G/	[2e/
4D\	.	.	.
=214	=214	=214	=214
2C/	1r	2A/	4e/]
.	.	.	4d/
2E\	.	2G/	1c
1D	1F	1d	.
.	.	.	2Bni/
=215	=215-	=215	=215
1C	1E	2r	2c/
.	.	2G/	2.cc\
1r	1F	2A/	.
.	.	.	4b-\
.	.	2c\	4a/
.	.	.	4g/
=216	=216-	=216	=216
1r	0G	2B-\	4b-\
.	.	.	4a/
.	.	2d\	4g/
.	.	.	4f/
1C	.	1c	1e
=217	=217	=217	=217
2.FF/	[0F	1.c	1f
4GG/	.	.	.
2AA/	.	.	2r
2FF/	.	2A/	2c/
=218	=218-	=218	=218
2BB-/	0F_	1B-	2d/
2BB-/	.	.	2d/
2FF/	.	2A/	2c/
2FF/	.	2c\	2A/
=219	=219-	=219	=219
1BB-	0F_	1d	2B-/
.	.	.	2B-/
2r	.	2c\	2A/
2FF/	.	2A/	2c/
=220	=220	=220	=220
2BB-/	0F_	1B-	1d
2BB-/	.	.	.
2FF/	.	2A/	2c/
2FF/	.	2c\	2A/
=221	=221-	=221	=221
1BB-	0F_	1d	1B-
2r	.	2c\	1A
2FF/	.	2A/	.
=222	=222-	=222	=222
2.BB-/	0F]	1B-	1r
4C/	.	.	.
2.D\	.	1A	2a/
.	.	.	2a/
4E\	.	.	.
=223	=223	=223	=223
1F	[0cj	2F/	2a/
.	.	2.c\	2a/
2E\	.	.	2g/
.	.	4B-\	.
[2F\	.	4A/	[2a/
.	.	4G/	.
=224	=224-	=224	=224
2F\]	0c]	1F	2a/]
4E\	.	.	4g/
4D\	.	.	4f/
1C	.	1G	1e
=225	=225-	=225	=225
1D	0A	1F	2r
.	.	.	2f/
2C/	.	2r	2e/
[2D\	.	[2A/	[2f/
=226	=226	=226	=226
2D\]	0F	2A/]	2f/]
4C/	.	2B-\	2g/
4BB-/	.	.	.
1AA	.	1c	1a
=227	=227-	=227	=227
0GG	0G	1B-	0d
.	.	2.B-\	.
.	.	4A/	.
=228	=228-	=228	=228
1GG	1B-	2.G/	1d
.	.	4F/	.
1AA	1A	1E	1c
=229	=229	=229	=229
1.BB-	0F	1D	1.d
.	.	[1F	.
4AA/	.	.	2e/
4GG/	.	.	.
=230	=230-	=230	=230
2FF/	1r	2F/]	1f
1F	.	4E/	.
.	.	4D/	.
.	1G	1C	1g
2E\	.	.	.
=231	=231-	=231	=231
1F	1A	2r	2f/
.	.	2.D/	1a
1D	1B-	.	.
.	.	4E/	.
.	.	4F/	4g/
.	.	4G/	4f/
=232	=232	=232	=232
[0Cl	[0cl	1A	[0el
.	.	1G	.
=233	=233-	=233	=233
0C]	0c]	0Gl	0e]
!!LO:LB:i:g=z
*	*rscale:1	*	*
=234||	=234||	=234||	=234||
*>E	*>E	*>E	*>E
*clefF4	*clefGv2	*clefGv2	*clefG2
*k[b-]	*k[b-]	*k[b-]	*k[b-]
*M3/1	*M3/1	*M3/1	*M3/1
*met(O3)	*met(O3)	*met(O3)	*met(O3)
!!section: Et unam sanctam
!!!OMD: Et unam sanctam
!!LO:TX:X=-40:Z=3:t=O3 mensuration
0C	0.c	0G	1.e
.	.	.	2f/
1C	.	1G	1g
=235.	=235.	=235.	=235.
1FF	0f	2F/	0a
.	.	2G/	.
1F	.	2A/	.
.	.	2B-\	.
1C	1e	1c	1g
=236.	=236.	=236.	=236.
1E	1c	0G	1e
0D	0B-	.	1.f
.	.	1F	.
.	.	.	2d/
=237	=237	=237	=237
0C	1c	1G	1.e
.	1r	1A	.
.	.	.	2f/
1C	1G	1E	1g
=238.	=238.	=238.	=238.
1AA	1A	1F	0c
1FF	1c	1A	.
1GG	1B-	1G	1r
=239.	=239.	=239.	=239.
0AA	1A	1E	0cc
.	1F	1A	.
1r	1G	1G	1b-
=240	=240	=240	=240
0.r	1A	1F	0a
.	0B-	0G	.
.	.	.	1g
=241.	=241.	=241.	=241.
1.F	0A	0D	0a
2E\	.	.	.
2D\	1r	1r	1a
2C/	.	.	.
=242.	=242.	=242.	=242.
0BB-	0d	0f	0b-
1F	1c	1f	1a
=243	=243	=243	=243
1F	1A	1f	0a
0G	0B-	1d	.
.	.	1e	1g
=244.	=244.	=244.	=244.
1.D	0A	1.f	0a
2C/	.	2e\	.
1D	1r	1f	1a
=245.	=245.	=245.	=245.
0AA	0A	1.e	0cc
.	.	2c\	.
1r	1G	2d\	1b-
.	.	2e\	.
=246	=246	=246	=246
0.r	1F	1f	1a
.	1B-	1d	1g
.	1A	1c	[1f
=247.	=247.	=247.	=247.
0.r	1.F	0A	2f/]
.	.	.	2g/
.	.	.	2a/
.	2G/	.	2b-\
.	2A/	1r	1cc
.	2B-\	.	.
=248.	=248.	=248.	=248.
0FF	0c	0A	1cc
.	.	.	1a
1GG	1B-	1B-	1g
=249	=249	=249	=249
1AA	1A	1c	0f
1BB-	0G	1d	.
1C	.	1c	1e
=250.	=250.	=250.	=250.
1.D	0F	1A	0f
.	.	1B-	.
2E\	.	.	.
1F	1r	1A	1f
=251.	=251.	=251.	=251.
1C	0c	0G	1e
0D	.	.	1f
.	1Bni	1F	1d
=252	=252	=252	=252
0.C	[0.c	0G	1e
.	.	.	1.e
.	.	[1A	.
.	.	.	2c/
=253.	=253.	=253.	=253.
0.r	1c]	1A]	0cc
.	0d	0G	.
.	.	.	1bni
=254.	=254.	=254.	=254.
0F	0c	0A	0.cc
1F	1f	1A	.
=255	=255	=255	=255
1G	1e	1B-	0.r
1E	1c	1G	.
1D	1f	1A	.
=256.	=256.	=256.	=256.
0G	1e	0B-	0.r
.	1.d	.	.
1F	.	1A	.
.	2c\	.	.
=257.	=257.	=257.	=257.
1E	0c	1.G	0.r
0D	.	.	.
.	.	2F/	.
.	1Bni	1f	.
=258	=258	=258	=258
0C	0c	1.e	0g
.	.	2c\	.
1r	1F	[1f	1a
=259.	=259.	=259.	=259.
0.r	1A	2f\]	1cc
.	.	2c\	.
.	0G	1d	1.b-
.	.	1e	.
.	.	.	2g/
=260.	=260.	=260.	=260.
1F	0F	0f	0a
1D	.	.	.
1E	1r	1g	1r
=261	=261	=261	=261
0F	1c	1.a	0.r
.	1A	.	.
.	.	2f\	.
1r	1B-	1g	.
=262.	=262.	=262.	=262.
1r	0c	1e	1g
1C	.	1g	1e
1D	1r	1f	1f
=263.	=263.	=263.	=263.
1E	1G	1e	1g
1F	1A	1c	1r
1r	1B-	1d	1r
=264	=264	=264	=264
1r	0c	1e	1g
1C	.	1g	1e
1D	1r	1f	1f
=265.	=265.	=265.	=265.
1E	1G	1e	1g
1F	1A	1c	1r
1r	1B-	1d	1g
=266.	=266.	=266.	=266.
1r	1.c	0e	1g
1r	.	.	1a
.	2B-\	.	.
[1G	1G	1d	1b-
=267	=267	=267	=267
1G]	1B-	0d	0g
0D	0A	.	.
.	.	1d	1f#i
=268.	=268.	=268.	=268.
0GG	1.G	1.B-	0g
.	2A/	2c\	.
1GG	1B-	2d\	1g
.	.	2e\	.
=269.	=269.	=269.	=269.
1D	1A	1f	1a
1E	0c	1e	1.g
[1F	.	1c	.
.	.	.	2f/
=270	=270	=270	=270
1F]	1A	0.c	0f
0C	0G	.	.
.	.	.	1e
=271.	=271.	=271.	=271.
1.D	0F	0A	1.f
2E\	.	.	2g/
1F	1r	1r	1a
=272.	=272.	=272.	=272.
1.BB-	1.F	1.B-	1.d
2C/	2E/	2A/	2c/
2BB-/	2F/	2B-\	2d/
2C/	2E/	2A/	2c/
=273	=273	=273	=273
1BB-	1F	0B-	1.d
1GG	1G	.	.
.	.	.	2e/
1FF	[1A	1c	[1f
=274.	=274.	=274.	=274.
2F\	2A/]	1c	2f/]
2E\	2G/	.	2g/
2D\	2B-\	2d\	2f/
2C/	2c\	2e\	2e/
1F	1A	1c	1a
=275.	=275.	=275.	=275.
1BB-	1B-	1d	2g/
.	.	.	1f
0C	0G	0c	.
.	.	.	2e/
.	.	.	2e/
.	.	.	2d/
=276	=276	=276	=276
0.FFl	0.Fl	0.cl	0.fl
==	==	==	==
*-	*-	*-	*-
!!!RDF**kern: l=long note in original notation
!!!RDF**kern: j=tied note group as single notehead
!!!RDF**kern: i=editorial accidental
!!!RDF**kern: V=start of tuplet marker
!!!RDF**kern: Z=end of tuplet marker
!!!ENC:	Jesse Rodin 8/27/2013
!!!END:	2013/08/27/
!!!EED:	Jesse Rodin
!!!EEV:	2014/01/03/
!!!ONB:	Translated from MusicXML and edited on 2014/01/03/ by Craig Sapp
!!muse2ps: T^@{OPR}^u^@{ONM}{. }@{OTL}^C^@{COM}^i2I150v85,85,85,150Q16
!!!RDF**kern: j=tied note group as single notehead
